actions/22x22-light/transform-shear-right.svg

<svg xmlns="http://www.w3.org/2000/svg" viewBox="0 0 22 22">
 <defs id="defs3051">
   <style type="text/css" id="current-color-scheme">
     .ColorScheme-Text {
       color:#4d4d4d;
     }
     </style>
 </defs>
   <path
      style="fill:currentColor;fill-opacity:1;stroke:none"
      d="m6 3v5h1v-4h11v8h-2v1h2 1v-1-9h-1-11zm-2 6-.9003906 9-.0996094 1h1 9 1l .900391-9 .099609-1h-1-9zm .9003906 1h9.0000004l-.800782 8h-8.9999996z"
      class="ColorScheme-Text" />
</svg>

<svg xmlns="http://www.w3.org/2000/svg" viewBox="0 0 22 22">
  <defs id="defs3051">
    <style type="text/css" id="current-color-scheme">
      .ColorScheme-Text {
        color:#4d4d4d;
      }
      </style>
  </defs>
 <path 
    style="fill:currentColor;fill-opacity:1;stroke:none" 
    d="M 6 3 L 6 8 L 7 8 L 7 4 L 18 4 L 18 12 L 16 12 L 16 13 L 18 13 L 19 13 L 19 12 L 19 3 L 18 3 L 7 3 L 6 3 z M 4 9 L 3.0996094 18 L 3 19 L 4 19 L 13 19 L 14 19 L 14.900391 10 L 15 9 L 14 9 L 5 9 L 4 9 z M 4.9003906 10 L 13.900391 10 L 13.099609 18 L 4.0996094 18 L 4.9003906 10 z "
	class="ColorScheme-Text"
    />  
</svg>
